public/assets/images/wallet.svg

<svg width="82" height="80" viewBox="0 0 82 80" fill="none" xmlns="http://www.w3.org/2000/svg">
<path d="M11.2852 29.7143C11.2852 28.144 12.5482 26.8711 14.1062 26.8711H29.1517C30.7098 26.8711 31.9728 28.144 31.9728 29.7143C31.9728 31.2846 30.7098 32.5575 29.1517 32.5575H14.1062C12.5482 32.5575 11.2852 31.2846 11.2852 29.7143Z" fill="url(#paint0_radial_169_2095)"/>
<path fill-rule="evenodd" clip-rule="evenodd" d="M74.8805 31.2342C74.6375 31.2193 74.3731 31.2194 74.0988 31.2195L74.0304 31.2195H63.2766C54.4127 31.2195 46.8281 37.9944 46.8281 46.8292C46.8281 55.6641 54.4127 62.439 63.2766 62.439H74.0304L74.0988 62.439C74.3731 62.4391 74.6375 62.4392 74.8805 62.4243C78.4809 62.2035 81.6651 59.4677 81.9328 55.6465C81.9504 55.3959 81.9502 55.1258 81.95 54.8755L81.95 54.8075V38.8509L81.95 38.783C81.9502 38.5327 81.9504 38.2626 81.9328 38.012C81.6651 34.1908 78.4809 31.4549 74.8805 31.2342ZM62.3231 50.9918C64.6051 50.9918 66.4551 49.1281 66.4551 46.8292C66.4551 44.5303 64.6051 42.6666 62.3231 42.6666C60.041 42.6666 58.1911 44.5303 58.1911 46.8292C58.1911 49.1281 60.041 50.9918 62.3231 50.9918Z" fill="url(#paint1_radial_169_2095)"/>
<path opacity="0.5" d="M74.6903 31.2254C74.6903 26.6181 74.5228 21.6759 71.5776 18.1329C71.2933 17.7909 70.9906 17.4588 70.6683 17.1365C67.7479 14.2161 64.0447 12.92 59.4694 12.3049C55.0237 11.7072 49.3432 11.7072 42.1715 11.7073H33.9262C26.7545 11.7072 21.0739 11.7072 16.6282 12.3049C12.0529 12.92 8.34968 14.2161 5.42924 17.1365C2.5088 20.057 1.21274 23.7602 0.597602 28.3355C-0.00010566 32.7812 -5.84159e-05 38.4617 1.18665e-06 45.6334V46.0738C-5.79507e-05 53.2455 -0.000104788 58.9261 0.597604 63.3718C1.21274 67.9471 2.5088 71.6503 5.42925 74.5707C8.34969 77.4912 12.0529 78.7872 16.6282 79.4024C21.0739 80.0001 26.7544 80 33.926 80H42.1714C49.343 80 55.0237 80.0001 59.4694 79.4024C64.0447 78.7872 67.7479 77.4912 70.6683 74.5707C71.4664 73.7726 72.1442 72.9146 72.7204 71.9944C74.4783 69.1867 74.6904 65.7456 74.6904 62.433C74.5022 62.4391 74.3039 62.439 74.1001 62.439L63.2778 62.439C54.4138 62.439 46.8293 55.6641 46.8293 46.8292C46.8293 37.9944 54.4138 31.2195 63.2778 31.2195L74.0999 31.2195C74.3037 31.2194 74.5022 31.2193 74.6903 31.2254Z" fill="url(#paint2_radial_169_2095)"/>
<path d="M31.6133 2.23264L23.4125 7.77573L16.6484 12.3019C21.0908 11.7072 26.7643 11.7073 33.924 11.7073H42.1693C49.341 11.7073 55.0215 11.7072 59.4672 12.3049C60.3614 12.4251 61.2224 12.5714 62.0507 12.7507L54.632 7.80488L46.388 2.23264C41.9839 -0.744212 36.0174 -0.744213 31.6133 2.23264Z" fill="url(#paint3_radial_169_2095)"/>
<defs>
<radialGradient id="paint0_radial_169_2095" cx="0" cy="0" r="1" gradientUnits="userSpaceOnUse" gradientTransform="translate(38.071 31.5655) rotate(-172.852) scale(20.6568 4.83234)">
<stop stop-color="#C6B38A"/>
<stop offset="0.463601" stop-color="#F3C691"/>
<stop offset="1" stop-color="#B4703E"/>
</radialGradient>
<radialGradient id="paint1_radial_169_2095" cx="0" cy="0" r="1" gradientUnits="userSpaceOnUse" gradientTransform="translate(92.3031 56.9928) rotate(-157.926) scale(37.5493 24.7784)">
<stop stop-color="#C6B38A"/>
<stop offset="0.463601" stop-color="#F3C691"/>
<stop offset="1" stop-color="#B4703E"/>
</radialGradient>
<radialGradient id="paint2_radial_169_2095" cx="0" cy="0" r="1" gradientUnits="userSpaceOnUse" gradientTransform="translate(96.7071 68.0864) rotate(-157.357) scale(80.1794 53.9817)">
<stop stop-color="#C6B38A"/>
<stop offset="0.463601" stop-color="#F3C691"/>
<stop offset="1" stop-color="#B4703E"/>
</radialGradient>
<radialGradient id="paint3_radial_169_2095" cx="0" cy="0" r="1" gradientUnits="userSpaceOnUse" gradientTransform="translate(75.4341 10.5264) rotate(-172.699) scale(45.3499 10.8319)">
<stop stop-color="#C6B38A"/>
<stop offset="0.463601" stop-color="#F3C691"/>
<stop offset="1" stop-color="#B4703E"/>
</radialGradient>
</defs>
</svg>

<svg xmlns="http://www.w3.org/2000/svg" width="82" height="80" fill="none" xmlns:v="https://vecta.io/nano"><path d="M11.285 29.714c0-1.57 1.263-2.843 2.821-2.843h15.046c1.558 0 2.821 1.273 2.821 2.843s-1.263 2.843-2.821 2.843H14.106c-1.558 0-2.821-1.273-2.821-2.843z" fill="url(#A)"/><path fill-rule="evenodd" d="M74.881 31.234l-.782-.015h-.068-10.754c-8.864 0-16.449 6.775-16.449 15.61s7.585 15.61 16.449 15.61H74.03h.068c.274 0 .539 0 .782-.015 3.6-.221 6.785-2.957 7.052-6.778.018-.251.017-.521.017-.771v-.068-15.957-.068c0-.25 0-.52-.017-.771-.268-3.821-3.452-6.557-7.052-6.778zM62.323 50.992c2.282 0 4.132-1.864 4.132-4.163s-1.85-4.163-4.132-4.163-4.132 1.864-4.132 4.163 1.85 4.163 4.132 4.163z" fill="url(#B)"/><path opacity=".5" d="M74.69 31.225c0-4.607-.167-9.55-3.113-13.093-.284-.342-.587-.674-.909-.996-2.92-2.92-6.624-4.217-11.199-4.832-4.446-.598-10.126-.598-17.298-.598h-8.245c-7.172 0-12.852 0-17.298.598-4.575.615-8.279 1.911-11.199 4.832S1.213 23.76.598 28.336C0 32.781 0 38.462 0 45.633v.44c0 7.172 0 12.852.598 17.298.615 4.575 1.911 8.279 4.832 11.199s6.624 4.216 11.199 4.832C21.074 80 26.754 80 33.926 80h8.245c7.172 0 12.852 0 17.298-.598 4.575-.615 8.279-1.911 11.199-4.832a14.53 14.53 0 0 0 2.052-2.576c1.758-2.808 1.97-6.249 1.97-9.561-.188.006-.386.006-.59.006H63.278c-8.864 0-16.448-6.775-16.448-15.61s7.584-15.61 16.448-15.61H74.1l.59.006z" fill="url(#C)"/><path d="M31.613 2.233l-8.201 5.543-6.764 4.526c4.442-.595 10.116-.595 17.276-.595h8.245c7.172 0 12.852 0 17.298.598.894.12 1.755.267 2.584.446l-7.419-4.946-8.244-5.572c-4.404-2.977-10.371-2.977-14.775 0z" fill="url(#D)"/><defs><radialGradient id="A" cx="0" cy="0" r="1" gradientUnits="userSpaceOnUse" gradientTransform="translate(38.071 31.5655) rotate(-172.852) scale(20.6568 4.83234)"><stop stop-color="#c6b38a"/><stop offset=".464" stop-color="#f3c691"/><stop offset="1" stop-color="#b4703e"/></radialGradient><radialGradient id="B" cx="0" cy="0" r="1" gradientUnits="userSpaceOnUse" gradientTransform="translate(92.3031 56.9928) rotate(-157.926) scale(37.5493 24.7784)"><stop stop-color="#c6b38a"/><stop offset=".464" stop-color="#f3c691"/><stop offset="1" stop-color="#b4703e"/></radialGradient><radialGradient id="C" cx="0" cy="0" r="1" gradientUnits="userSpaceOnUse" gradientTransform="translate(96.7071 68.0864) rotate(-157.357) scale(80.1794 53.9817)"><stop stop-color="#c6b38a"/><stop offset=".464" stop-color="#f3c691"/><stop offset="1" stop-color="#b4703e"/></radialGradient><radialGradient id="D" cx="0" cy="0" r="1" gradientUnits="userSpaceOnUse" gradientTransform="translate(75.4341 10.5264) rotate(-172.699) scale(45.3499 10.8319)"><stop stop-color="#c6b38a"/><stop offset=".464" stop-color="#f3c691"/><stop offset="1" stop-color="#b4703e"/></radialGradient></defs></svg>
